X:304
L:1/8
M:3/4
K:F
 AF |:"C7" Ec BE G2 |"F" Fd cF A2 |"C7" EG ce c'b |"F" a2 fc AF |"C7" Ec BE G2 |"F" Fd cF A2 | 
"C7" GB eg be |1"F" f2 z2 AF :|2"F" f2 z2 fe |:"Bb" d^c df ed |"F" c=B ca f2 |"C7" eg B2 ed | 
"F" cf Ac fe |"Bb" d^c df ed |"F" c=B ca f2 |"C7" eg c^c de |1"F" f2 z2 fe :|2"F" f2 z2 z2 |]

